X:991
T:Hoppvals efter Jularpa-Sven
T:(SvL Skåne nr. 30)
R:Hoppvals
B:Svenska Låtar Skåne
Z:Patrik Månsson, 2009-01-12
O:Glimåkra, Skåne
S:efter [[!SvenAkesson|Sven Åkesson]]
M:2/4
L:1/8
K:D

|: A | {e}dc {e}dc | {e}dc df | {a}gf ga | b2 a z | {e}dc {e}dc |
{e}dc df | ag ec | e2 d :: f | ag eg | ba fd |
ag eg | ba fd | {e}dc {e}dc | {e}dc df | ag ec | e2 d :|



(:musicend:)

(:music:)
